public/icons/profile/camera.svg

<svg width="29" height="21" viewBox="0 0 29 21" fill="none" xmlns="http://www.w3.org/2000/svg">
<path id="Vector" d="M25.0654 3.81818H21.3779C21.1904 3.81818 20.9579 3.70244 20.7767 3.51989L19.1554 1.07744C19.1298 1.03868 19.1012 1.00179 19.0698 0.967074C18.5098 0.343636 17.7529 0 16.9404 0H11.1904C10.3779 0 9.62105 0.343636 9.06105 0.967074C9.02969 1.00179 9.00107 1.03868 8.97543 1.07744L7.35418 3.52347C7.21543 3.66784 7.02043 3.82176 6.81543 3.82176V3.34449C6.81543 3.09133 6.71007 2.84854 6.52254 2.66952C6.335 2.49051 6.08065 2.38994 5.81543 2.38994H4.31543C4.05021 2.38994 3.79586 2.49051 3.60832 2.66952C3.42079 2.84854 3.31543 3.09133 3.31543 3.34449V3.82176H3.06543C2.27003 3.82255 1.50745 4.12451 0.945023 4.66137C0.382593 5.19824 0.0662569 5.92616 0.0654297 6.6854V18.1364C0.0662569 18.8956 0.382593 19.6235 0.945023 20.1604C1.50745 20.6973 2.27003 20.9992 3.06543 21H25.0654C25.8608 20.9992 26.6234 20.6973 27.1858 20.1604C27.7483 19.6235 28.0646 18.8956 28.0654 18.1364V6.68182C28.0646 5.92258 27.7483 5.19466 27.1858 4.65779C26.6234 4.12093 25.8608 3.81897 25.0654 3.81818ZM17.8679 15.8872C17.0509 16.525 16.0721 16.9458 15.0303 17.1074C13.9885 17.269 12.9205 17.1656 11.9339 16.8075C10.9473 16.4495 10.0771 15.8495 9.41086 15.0681C8.74464 14.2867 8.30601 13.3514 8.13918 12.3566C7.92567 12.4257 7.69395 12.424 7.48161 12.3516C7.26927 12.2793 7.08879 12.1405 6.96944 11.9579C6.8501 11.7753 6.79889 11.5596 6.82415 11.3458C6.8494 11.1319 6.94962 10.9325 7.10855 10.7798L8.35855 9.58662C8.54607 9.40774 8.80033 9.30726 9.06543 9.30726C9.33053 9.30726 9.58479 9.40774 9.7723 9.58662L11.0223 10.7798C11.1621 10.9133 11.2572 11.0833 11.2958 11.2684C11.3343 11.4535 11.3145 11.6454 11.2389 11.8198C11.1632 11.9941 11.0351 12.1432 10.8708 12.2481C10.7064 12.353 10.5131 12.409 10.3154 12.4091C10.2736 12.4086 10.2319 12.4058 10.1904 12.4007C10.3578 13.0229 10.6866 13.5947 11.1466 14.0634C11.6066 14.5322 12.183 14.8827 12.8224 15.0827C13.4619 15.2826 14.1438 15.3255 14.8052 15.2075C15.4666 15.0894 16.0862 14.8141 16.6067 14.4071C16.7084 14.3273 16.8257 14.2674 16.9517 14.231C17.0777 14.1945 17.2101 14.1822 17.3411 14.1947C17.4722 14.2072 17.5993 14.2443 17.7153 14.3038C17.8313 14.3633 17.9338 14.4442 18.017 14.5416C18.1001 14.6391 18.1623 14.7513 18.2 14.8717C18.2376 14.9922 18.2499 15.1186 18.2362 15.2436C18.2226 15.3686 18.1832 15.4899 18.1203 15.6003C18.0574 15.7107 17.9723 15.8083 17.8698 15.8872H17.8679ZM21.0223 12.1287L19.7723 13.3219C19.5848 13.5008 19.3305 13.6012 19.0654 13.6012C18.8003 13.6012 18.5461 13.5008 18.3586 13.3219L17.1086 12.1287C16.9624 11.9887 16.8653 11.8089 16.8307 11.614C16.7962 11.4192 16.8258 11.2189 16.9156 11.0408C17.0054 10.8627 17.1509 10.7156 17.332 10.6198C17.5131 10.524 17.7209 10.4842 17.9267 10.506C17.7596 9.88277 17.4303 9.30997 16.9693 8.84075C16.5083 8.37152 15.9306 8.02107 15.2898 7.82194C14.649 7.62281 13.9659 7.58145 13.3038 7.7017C12.6418 7.82194 12.0223 8.0999 11.5029 8.50977C11.4025 8.5946 11.2852 8.65927 11.1581 8.69995C11.0309 8.74063 10.8965 8.75648 10.7628 8.74656C10.6291 8.73664 10.4988 8.70115 10.3798 8.6422C10.2608 8.58326 10.1554 8.50206 10.0699 8.40344C9.98437 8.30482 9.92052 8.19079 9.88213 8.06814C9.84374 7.94549 9.83159 7.81672 9.8464 7.6895C9.8612 7.56227 9.90266 7.43919 9.96832 7.32757C10.034 7.21595 10.1225 7.11808 10.2286 7.03977C11.0444 6.39583 12.0242 5.96938 13.0685 5.80373C14.1128 5.63807 15.1844 5.7391 16.1746 6.09657C17.1648 6.45404 18.0382 7.05521 18.7063 7.83906C19.3744 8.62291 19.8133 9.56154 19.9786 10.5597C20.1922 10.487 20.4253 10.4858 20.6397 10.5562C20.8541 10.6267 21.0371 10.7646 21.1586 10.9474C21.2801 11.1302 21.3329 11.3469 21.3084 11.5621C21.2838 11.7773 21.1834 11.9781 21.0236 12.1317L21.0223 12.1287Z" fill="white"/>
</svg>

<svg xmlns="http://www.w3.org/2000/svg" fill="none" viewBox="0 0 29 21"><path fill="#fff" d="M25.07 3.82h-3.7a.93.93 0 0 1-.6-.3l-1.61-2.44A2.84 2.84 0 0 0 16.95 0h-5.76a2.84 2.84 0 0 0-2.21 1.08L7.35 3.52c-.13.15-.33.3-.53.3v-.48c0-.25-.11-.5-.3-.67a1.02 1.02 0 0 0-.7-.28h-1.5c-.27 0-.52.1-.71.28a.93.93 0 0 0-.3.67v.48h-.24c-.8 0-1.56.3-2.12.84A2.8 2.8 0 0 0 .07 6.7v11.45c0 .76.31 1.48.88 2.02.56.54 1.32.84 2.12.84h22c.8 0 1.55-.3 2.12-.84a2.8 2.8 0 0 0 .88-2.02V6.68a2.8 2.8 0 0 0-.88-2.02 3.08 3.08 0 0 0-2.12-.84Zm-7.2 12.07a6.14 6.14 0 0 1-5.94.92 6 6 0 0 1-2.52-1.74 5.61 5.61 0 0 1-1.27-2.71c-.21.07-.45.06-.66 0a1 1 0 0 1-.51-.4.92.92 0 0 1 .14-1.18l1.25-1.2a1.02 1.02 0 0 1 1.41 0l1.25 1.2a.92.92 0 0 1 .22 1.04.97.97 0 0 1-.37.43 1.03 1.03 0 0 1-.68.15c.17.62.5 1.2.96 1.66a4.19 4.19 0 0 0 5.46.34 1.02 1.02 0 0 1 .73-.2 1.04 1.04 0 0 1 .68.34.94.94 0 0 1 .22.7.92.92 0 0 1-.37.65Zm3.15-3.76-1.25 1.2c-.19.17-.44.27-.7.27-.27 0-.52-.1-.71-.28l-1.25-1.2a.92.92 0 0 1-.2-1.09.97.97 0 0 1 .42-.41c.18-.1.4-.14.6-.11-.17-.63-.5-1.2-.96-1.67a4.18 4.18 0 0 0-5.47-.33 1.01 1.01 0 0 1-.74.24 1.04 1.04 0 0 1-.69-.35.94.94 0 0 1-.22-.71.92.92 0 0 1 .38-.65 6.14 6.14 0 0 1 5.94-.94 6 6 0 0 1 2.54 1.74 5.6 5.6 0 0 1 1.27 2.72c.21-.07.45-.07.66 0 .21.07.4.2.52.39a.92.92 0 0 1-.14 1.18Z"/></svg>
